X:54
T:Light and Arie
S:Petrie's Second Collection of Strathspey Reels and Country Dances &c.
Z:Steve Wyrick , 6/11/04
N:Petrie's Second Collection, page 19
% Gore's Index gives earliest publication as John Hamilton's
% "A Choice Coll of Scots Reels, or C.C. & Str."  N.D.; Petrie's may be older
L:1/8
M:6/8
R:Jig
K:F
d|:c3  AcA|FAc fcA|c3  AcA|G2A B2d|c3  AcA|FAc fcA|BgB AfA|G2A B2d:|
 |:fgf fcA|fgf fag|fgf fcA|G2A B2d|faf gbg|faf ege|fed cBA|G2A B2d:|
 |:cAF FAF|cAF Acf|cAF FAF|G2A B2d|cAF FAc|fed cBA|BgB AfA|G2A B2d:|
 |:fgf fcA|fgf fag|fgf fcA|G2A B2d|faf gbg|faf ege|fdf cAF|G2A B2d:|
